packages/core/src/svgs/loom.svg

<svg width="24" height="24" viewBox="0 0 24 24" fill="none" xmlns="http://www.w3.org/2000/svg">
<g clip-path="url(#clip0_31_13354)">
<path d="M0 0H24V24H0V0Z" fill="#49BEC0"/>
<path d="M15.7051 6.89248L13.6222 8.35005L12.8264 7.74276L15.6687 5.62305L18.238 7.36605C18.5549 7.5789 18.8161 7.86486 18.9993 8.19982C19.1826 8.53477 19.2826 8.90888 19.2909 9.29059C19.2992 9.67231 19.2156 10.0504 19.0471 10.393C18.8786 10.7357 18.6302 11.0327 18.3228 11.2592L17.3268 12.0002L18.1771 12.6015C18.4991 12.83 18.7618 13.1323 18.943 13.4831C19.1243 13.8339 19.2188 14.223 19.2188 14.6179C19.2188 15.0128 19.1243 15.4019 18.943 15.7527C18.7618 16.1035 18.4991 16.4058 18.1771 16.6343L15.7235 18.3773L7.5601 12.6379L6.36996 13.5122C6.20609 13.6251 6.07091 13.7749 5.97524 13.9494C5.87957 14.1239 5.82605 14.3184 5.81897 14.5173C5.81189 14.7162 5.85145 14.914 5.93447 15.0949C6.01749 15.2758 6.14168 15.4347 6.29711 15.559L8.36196 17.2356L10.4328 15.7536L11.1982 16.3365L8.34396 18.3773L5.50125 16.2272C5.25137 16.0297 5.0504 15.7773 4.91398 15.4895C4.77755 15.2017 4.70934 14.8863 4.71464 14.5679C4.71995 14.2495 4.79863 13.9365 4.94458 13.6535C5.09052 13.3704 5.29978 13.1248 5.55611 12.9358L6.74025 12.055L5.85353 11.4353C5.54167 11.2148 5.28666 10.9234 5.1095 10.585C4.93234 10.2466 4.8381 9.87101 4.83455 9.48908C4.83099 9.10715 4.91822 8.72984 5.08904 8.38823C5.25987 8.04662 5.50941 7.75047 5.81711 7.52419L8.31439 5.6959L16.453 11.3929L17.5642 10.6035C17.7722 10.4548 17.9405 10.2572 18.0542 10.0282C18.1679 9.79924 18.2237 9.54581 18.2165 9.29023C18.2093 9.03465 18.1394 8.78476 18.0129 8.56253C17.8865 8.3403 17.7074 8.15254 17.4914 8.01576L15.7055 6.89848L15.7051 6.89248ZM15.6871 11.9333L8.23468 6.75876L6.11539 8.52019C5.97092 8.63773 5.85575 8.78725 5.77896 8.95693C5.70218 9.12662 5.66589 9.31183 5.67295 9.49794C5.68002 9.68406 5.73025 9.86598 5.81968 10.0294C5.9091 10.1927 6.03528 10.3331 6.18825 10.4393L7.59696 11.4233L10.4512 9.30962L11.2595 9.9109L8.42925 12.0002L15.8264 17.1503L17.6791 15.8145C17.8764 15.6718 18.0368 15.4842 18.1471 15.2671C18.2573 15.05 18.3142 14.8097 18.313 14.5663C18.3118 14.3228 18.2525 14.0831 18.1401 13.8672C18.0277 13.6512 17.8654 13.4652 17.6667 13.3245L16.5738 12.565L13.5978 14.788L12.7291 14.0346L15.6811 11.9453L15.6871 11.9333Z" fill="white"/>
</g>
<defs>
<clipPath id="clip0_31_13354">
<rect width="24" height="24" fill="white"/>
</clipPath>
</defs>
</svg>

<svg xmlns="http://www.w3.org/2000/svg" width="24" height="24" fill="none" viewBox="0 0 24 24"><g clip-path="url(#a)"><path fill="#49BEC0" d="M0 0h24v24H0z"/><path fill="#fff" d="M15.705 6.892 13.622 8.35l-.796-.607 2.843-2.12 2.569 1.743a2.38 2.38 0 0 1 .085 3.893l-.996.741.85.601a2.473 2.473 0 0 1 0 4.033l-2.453 1.743-8.164-5.74-1.19.875a1.276 1.276 0 0 0-.073 2.047l2.065 1.677 2.07-1.482.766.583-2.854 2.04-2.843-2.15a2.07 2.07 0 0 1 .055-3.291l1.184-.881-.886-.62a2.41 2.41 0 0 1-.037-3.91l2.497-1.83 8.139 5.698 1.111-.79a1.56 1.56 0 0 0-.073-2.587l-1.785-1.118zm-.018 5.041L8.235 6.76 6.115 8.52a1.202 1.202 0 0 0 .073 1.92l1.409.983 2.854-2.113.808.6L8.43 12l7.397 5.15 1.853-1.335a1.532 1.532 0 0 0-.012-2.49l-1.093-.76-2.976 2.223-.869-.753 2.952-2.09z"/></g><defs><clipPath id="a"><path fill="#fff" d="M0 0h24v24H0z"/></clipPath></defs></svg>
